X:1
T:Title
%%score ( 1 2 ) ( 3 4 )
L:1/8
Q:1/4=110
M:4/4
K:Eb
V:1 treble nm="Grand Piano, Staff 1"
V:2 treble 
V:3 bass nm="Choir Pad, Cara, 76.76"
V:4 bass 
V:1
 [EG]2 [Ec]2 [EB]2 D2 | [B,E]2 [EG]4 [EF]2 | z4 z2 A2 | [DB]2 [EG]6 | [EB]2 [Ee]2 e2 [Gd]2 | %5
w: By~Uzziah~Christopher~Burnap,~1898 * * *|||||
 G2 c4 z2 | z4 .E2 z2 | F2 z2 z4 | z8 |] %9
w: ||||
V:2
 x8 | x8 | [EF]2 [EF]2 [EG]2 EC | x8 | x8 | EDCD EF [GB]2 | [EG][DF] [CE]2 =B,-[B,D] C2 | CD E6- | %8
 E2 z2 z4 |] %9
V:3
 [E,B,]2 [B,,G,]2 [E,G,]2 [F,A,]2 | [G,B,]2 [G,=B,]4 [A,C]2 | [=A,C]2 B,2 [B,,B,]2 [B,,B,]2 | %3
 [B,,B,]2 [E,B,]6 | [E,G,]2 [C,G,]2 [E,C]2 [G,C]2 | [G,B,]2 A,B, CD [G,E]2 | %6
 [=B,,G,]2 [C,G,]2 G,F, [A,,E,]2 | [B,,A,]2 [E,G,]6- | [E,G,]2 z2 z4 |] %9
V:4
 x8 | x8 | x8 | x8 | x8 | x8 | z4 G,,2 z2 | x8 | x8 |] %9

